build/svg/sw/res/sidebar/pageproppanel/formatmirror_24x24.svg

<?xml version="1.0" encoding="UTF-8" standalone="no"?>
<svg
   xmlns:dc="http://purl.org/dc/elements/1.1/"
   xmlns:cc="http://creativecommons.org/ns#"
   xmlns:rdf="http://www.w3.org/1999/02/22-rdf-syntax-ns#"
   xmlns:svg="http://www.w3.org/2000/svg"
   xmlns="http://www.w3.org/2000/svg"
   xmlns:sodipodi="http://sodipodi.sourceforge.net/DTD/sodipodi-0.dtd"
   xmlns:inkscape="http://www.inkscape.org/namespaces/inkscape"
   viewBox="0 0 26 26"
   version="1.1"
   id="svg6"
   sodipodi:docname="formatmirror_24x24.svg"
   inkscape:export-filename="/home/jupiter007/Libreoffice yaru theme fullcolor/build/sw/res/sidebar/pageproppanel/formatmirror_24x24.png"
   inkscape:export-xdpi="95"
   inkscape:export-ydpi="95"
   inkscape:version="0.92.5 (2060ec1f9f, 2020-04-08)">
  <metadata
     id="metadata12">
    <rdf:RDF>
      <cc:Work
         rdf:about="">
        <dc:format>image/svg+xml</dc:format>
        <dc:type
           rdf:resource="http://purl.org/dc/dcmitype/StillImage" />
      </cc:Work>
    </rdf:RDF>
  </metadata>
  <defs
     id="defs10" />
  <sodipodi:namedview
     pagecolor="#ffffff"
     bordercolor="#666666"
     borderopacity="1"
     objecttolerance="10"
     gridtolerance="10"
     guidetolerance="10"
     inkscape:pageopacity="0"
     inkscape:pageshadow="2"
     inkscape:window-width="1920"
     inkscape:window-height="1011"
     id="namedview8"
     showgrid="false"
     inkscape:zoom="18.153846"
     inkscape:cx="12.268446"
     inkscape:cy="14.554348"
     inkscape:window-x="0"
     inkscape:window-y="32"
     inkscape:window-maximized="1"
     inkscape:current-layer="svg6" />
  <path
     sodipodi:nodetypes="cccccccccc"
     style="opacity:0.6;fill:#000000;stroke:#000000;stroke-width:2;stroke-linejoin:round;stroke-miterlimit:4;stroke-dasharray:none"
     id="path829"
     d="m 17,21 c -2,0 -3,0 -3,-2 V 6.9999997 c 0,-2 1,-2 3,-2 h 5 c 2,0 3,0 3,2 V 10.406249 19 c 0,2 -1,2 -3,2 z"
     inkscape:connector-curvature="0" />
  <path
     inkscape:connector-curvature="0"
     d="m 17,21 c -2,0 -3,0 -3,-2 V 6.9999997 c 0,-2 1,-2 3,-2 h 5 c 2,0 3,0 3,2 V 10.406249 19 c 0,2 -1,2 -3,2 z"
     id="path2-3"
     style="fill:#ffffff"
     sodipodi:nodetypes="cccccccccc" />
  <path
     inkscape:connector-curvature="0"
     d="m 4.0000002,21 c -2,0 -3,0 -3,-2 V 6.9999997 c 0,-2 1,-2 3,-2 h 4.9999997 c 2.0000001,0 3.0000001,0 3.0000001,2 V 10.406249 19 c 0,2 -1,2 -3.0000001,2 z"
     id="path832"
     style="opacity:0.6;fill:#000000;stroke:#000000;stroke-width:2;stroke-linejoin:round;stroke-miterlimit:4;stroke-dasharray:none"
     sodipodi:nodetypes="cccccccccc" />
  <path
     sodipodi:nodetypes="cccccccccc"
     style="fill:#ffffff"
     id="path834"
     d="m 4.0000002,21 c -2,0 -3,0 -3,-2 V 6.9999997 c 0,-2 1,-2 3,-2 h 4.9999997 c 2.0000001,0 3.0000001,0 3.0000001,2 V 10.406249 19 c 0,2 -1,2 -3.0000001,2 z"
     inkscape:connector-curvature="0" />
  <path
     d="m 3.0000002,4.9999996 v 2 h -2 v 1 h 2 V 18 h -2 v 1 h 2 v 2 h 1 v -2 h 4.9999997 v 2 h 1 V 19 H 12 V 18 H 9.9999999 V 7.9999996 H 12 v -1 H 9.9999999 v -2 h -1 v 2 H 4.0000002 v -2 z m 12.9999998,0 v 2 h -2 v 1 h 2 V 18 h -2 v 1 h 2 v 2 h 1 v -2 h 5 v 2 h 1 v -2 h 2 V 18 H 23 V 7.9999996 h 2 v -1 h -2 v -2 h -1 v 2 h -5 v -2 z m -11.9999999,3 H 8.9999999 V 18 H 4.0000002 Z m 12.9999999,0 h 5 V 18 h -5 z"
     id="path4"
     inkscape:connector-curvature="0"
     style="fill:#762572"
     sodipodi:nodetypes="cccccccccccccccccccccccccccccccccccccccccccccccccccccccccccccccccccc" />
</svg>

<svg xmlns="http://www.w3.org/2000/svg" viewBox="0 0 26 26"><path d="M17 21c-2 0-3 0-3-2V7c0-2 1-2 3-2h5c2 0 3 0 3 2v12c0 2-1 2-3 2z" opacity=".6" stroke="#000" stroke-width="2" stroke-linejoin="round"/><path d="M17 21c-2 0-3 0-3-2V7c0-2 1-2 3-2h5c2 0 3 0 3 2v12c0 2-1 2-3 2z" fill="#fff"/><path d="M4 21c-2 0-3 0-3-2V7c0-2 1-2 3-2h5c2 0 3 0 3 2v12c0 2-1 2-3 2z" opacity=".6" stroke="#000" stroke-width="2" stroke-linejoin="round"/><path d="M4 21c-2 0-3 0-3-2V7c0-2 1-2 3-2h5c2 0 3 0 3 2v12c0 2-1 2-3 2z" fill="#fff"/><path d="M3 5v2H1v1h2v10H1v1h2v2h1v-2h5v2h1v-2h2v-1h-2V8h2V7h-2V5H9v2H4V5zm13 0v2h-2v1h2v10h-2v1h2v2h1v-2h5v2h1v-2h2v-1h-2V8h2V7h-2V5h-1v2h-5V5zM4 8h5v10H4zm13 0h5v10h-5z" fill="#762572"/></svg>
